src/assets/svg/bg-mainbord.svg

<svg preserveAspectRatio="false" viewBox="0 0 1672 915" xmlns="http://www.w3.org/2000/svg"><g fill="none" fill-rule="evenodd"><path d="m1666.16608 160.700678c.11618.752462.17645 1.523326.17645 2.308202v730.98224c0 8.289175-6.71006 15.00888-15.00198 15.00888h-1629.9960292c-8.2853683 0-15.00198642-6.723718-15.00198642-15.00888v-603.99112h-.34253438v-184.113548l120.135804-99.886452h1540.030276z" stroke="#ffad00" stroke-width="5"/><path d="m1660.82464 162.672767c.11546.747462.17536 1.513203.17536 2.292865v726.125215c0 8.234098-6.66826 14.909153-14.90854 14.909153h-1619.8425227c-8.2337574 0-14.9085366-6.679042-14.9085366-14.909153v-599.97789h-.3404007v-182.890203l119.387459-99.222754h1530.437181z" fill="#e5e5e5" fill-opacity=".95"/></g></svg>

<?xml version="1.0" encoding="UTF-8" standalone="no"?>
<svg preserveAspectRatio="false" width="100%" height="100%" viewBox="0 0 1672 915" version="1.1" xmlns="http://www.w3.org/2000/svg" xmlns:xlink="http://www.w3.org/1999/xlink">
    <!-- Generator: Sketch 3.6.1 (26313) - http://www.bohemiancoding.com/sketch -->
    <title>bg-mainbord</title>
    <desc>Created with Sketch.</desc>
    <defs></defs>
    <g id="Page-1" stroke="none" stroke-width="1" fill="none" fill-rule="evenodd">
        <g id="bg-mainbord">
            <path d="M1666.16608,160.700678 C1666.28226,161.45314 1666.34253,162.224004 1666.34253,163.00888 L1666.34253,893.99112 C1666.34253,902.280295 1659.63247,909 1651.34055,909 L21.3445208,909 C13.0591525,909 6.34253438,902.276282 6.34253438,893.99112 L6.34253438,290 L6,290 L6,105.886452 L126.135804,6 L1666.16608,6 L1666.16608,160.700678 Z" id="Combined-Shape" stroke="#FFAD00" stroke-width="5"></path>
            <path d="M1660.82464,162.672767 C1660.9401,163.420229 1661,164.18597 1661,164.965632 L1661,891.090847 C1661,899.324945 1654.33174,906 1646.09146,906 L26.2489373,906 C18.0151799,906 11.3404007,899.320958 11.3404007,891.090847 L11.3404007,291.112957 L11,291.112957 L11,108.222754 L130.387459,9 L1660.82464,9 L1660.82464,162.672767 Z" id="Combined-Shape" fill-opacity="0.95" fill="#E5E5E5"></path>
        </g>
    </g>
</svg>
